component-icons/svg/chat.svg

<?xml version="1.0" encoding="utf-8"?>
<!-- Generator: Adobe Illustrator 24.2.3, SVG Export Plug-In . SVG Version: 6.00 Build 0)  -->
<svg version="1.1" id="Layer_1" xmlns="http://www.w3.org/2000/svg" xmlns:xlink="http://www.w3.org/1999/xlink" x="0px" y="0px"
	 width="24px" height="24px" viewBox="0 0 24 24" enable-background="new 0 0 24 24" xml:space="preserve">
<path d="M8,17l-4,4.2V17H2V7h2V5H0v14h2v5h2l4.8-5h7.4l-2-2H8z M20,4H10v2h8L20,4z M16,8h-6v2h4L16,8z M6,0v15h9.2l4.8,5h2v-5h2V0H6
	z M22,13h-2v4.2L16,13H8V2h14V13z"/>
</svg>

<svg id="Layer_1" data-name="Layer 1" xmlns="http://www.w3.org/2000/svg" viewBox="0 0 24 24">
  <defs>
    <style>
      .cls-1 {
        fill: gray;
      }
    </style>
  </defs>
  <title>chat</title>
  <path class="cls-1" d="M8,17,4,21.18V17H2V7H4V5H0V19H2v5H4l4.84-5h7.41l-2-2ZM20,4H10V6h8ZM16,8H10v2h4ZM6,0V15l9.16,0L20,20h2V15h2V0ZM22,13H20v4.17L16,13H8V2H22Z"/>
</svg>
